icons/category/icon_category-charity_xxl_white.svg

<?xml version="1.0" encoding="UTF-8"?>
<svg width="48px" height="48px" viewBox="0 0 48 48" version="1.1" xmlns="http://www.w3.org/2000/svg" xmlns:xlink="http://www.w3.org/1999/xlink">
    <!-- Generator: Sketch 48.2 (47327) - http://www.bohemiancoding.com/sketch -->
    <title>icon_category-charity_xxl_white</title>
    <desc>Created with Sketch.</desc>
    <defs></defs>
    <g id="mobile" stroke="none" stroke-width="1" fill="none" fill-rule="evenodd" transform="translate(-1844.000000, -138.000000)">
        <g id="Headings" transform="translate(64.000000, 77.000000)">
            <g id="icon_category_charity__xxl__white" transform="translate(1780.000000, 61.000000)">
                <g id="ungroup">
                    <rect id="Rectangle-path" x="0" y="0" width="48" height="48"></rect>
                    <g id="a1" opacity="0.4"></g>
                    <path d="M13.364,12 L6.451,12 C4.762,14.621 3.728,17.694 3.551,21 L11.678,21 C11.776,17.711 12.357,14.671 13.364,12 L13.364,12 Z" id="Shape"></path>
                    <path d="M19.361,3.71 C14.806,4.362 10.788,6.661 7.936,10 L14.226,10 C15.508,7.408 17.247,5.272 19.361,3.71 L19.361,3.71 Z" id="Shape"></path>
                    <path d="M11.802,23 L11.652,23 L3.551,23 C3.728,26.306 4.762,29.379 6.451,32 L13.489,32 C12.482,29.329 11.901,26.289 11.802,23 L11.802,23 Z" id="Shape"></path>
                    <path d="M28.775,10 L36.057,10 C32.959,6.374 28.494,3.961 23.451,3.569 C25.651,5.142 27.454,7.331 28.775,10 L28.775,10 Z" id="Shape"></path>
                    <path d="M14.35,34 L7.936,34 C10.817,37.374 14.888,39.687 19.501,40.311 C17.38,38.746 15.637,36.599 14.35,34 L14.35,34 Z" id="Shape"></path>
                    <path d="M21.5,4.669 C19.464,5.906 17.766,7.723 16.481,10 L26.52,10 C25.234,7.723 23.536,5.906 21.5,4.669 L21.5,4.669 Z" id="Shape"></path>
                    <path d="M21.5,4.669 C19.464,5.906 17.766,7.723 16.481,10 L26.52,10 C25.234,7.723 23.536,5.906 21.5,4.669 L21.5,4.669 Z" id="Shape"></path>
                    <path d="M15.51,12 C14.417,14.608 13.782,17.658 13.676,21 L13.777,21 L22.459,21 C23.511,20.402 24.725,20.056 26.021,20.056 C27.029,20.056 28.245,20.381 29.326,21.036 C29.223,17.68 28.587,14.618 27.49,12 L15.51,12 L15.51,12 Z" id="Shape"></path>
                    <path d="M21.5,4.669 C19.464,5.906 17.766,7.723 16.481,10 L26.52,10 C25.234,7.723 23.536,5.906 21.5,4.669 L21.5,4.669 Z" id="Shape"></path>
                    <path d="M15.635,32 L20.198,32 C19.328,30.414 18.8,28.828 18.8,27.278 C18.8,25.675 19.329,24.198 20.213,23 L13.802,23 C13.907,26.342 14.542,29.392 15.635,32 L15.635,32 Z" id="Shape"></path>
                    <path d="M22,41 C23.555,41 25.096,40.805 26.592,40.434 C27.764,41.56 28.954,42.65 30.085,43.682 C30.74,44.281 31.377,44.862 31.978,45.421 L32.319,45.738 L32.66,45.421 C33.261,44.861 33.897,44.28 34.553,43.682 C39.804,38.889 46.338,32.923 46.338,27.278 C46.338,23.807 44.035,20.865 40.878,19.895 C39.815,10.253 31.733,3 22,3 C11.523,3 3,11.523 3,22 C3,32.477 11.523,41 22,41 L22,41 Z M45.337,27.278 C45.337,32.482 38.983,38.283 33.878,42.944 C33.342,43.433 32.819,43.91 32.318,44.374 C31.817,43.91 31.295,43.434 30.758,42.944 C25.653,38.283 19.3,32.482 19.3,27.278 C19.3,23.571 22.316,20.555 26.022,20.555 C27.418,20.555 29.466,21.285 30.666,22.89 C31.453,23.941 31.819,24.983 31.819,26.166 L32.819,26.166 C32.819,24.982 33.185,23.94 33.972,22.89 C35.171,21.286 37.219,20.555 38.615,20.555 C42.321,20.556 45.337,23.571 45.337,27.278 L45.337,27.278 Z M22,4 C31.104,4 38.673,10.701 39.833,19.661 C39.435,19.597 39.03,19.555 38.614,19.555 C36.923,19.555 34.584,20.401 33.171,22.29 C32.815,22.767 32.531,23.243 32.318,23.729 C32.105,23.243 31.822,22.766 31.465,22.29 C30.052,20.4 27.712,19.555 26.021,19.555 C21.763,19.555 18.299,23.02 18.299,27.278 C18.299,31.411 21.803,35.714 25.739,39.604 C24.515,39.863 23.262,40 22,40 C12.075,40 4,31.925 4,22 C4,12.075 12.075,4 22,4 L22,4 Z" id="Shape" fill="#FFFFFF"></path>
                    <path d="M36.057,10 L28.775,10 C27.454,7.331 25.652,5.142 23.452,3.569 C22.971,3.531 22.49,3.5 22,3.5 C21.102,3.5 20.225,3.586 19.361,3.71 C17.247,5.272 15.508,7.409 14.225,10 L7.935,10 C7.396,10.631 6.902,11.299 6.45,12 L13.363,12 C12.356,14.671 11.774,17.711 11.676,21 L3.55,21 C3.532,21.333 3.5,21.662 3.5,22 C3.5,22.338 3.533,22.667 3.551,23 L11.653,23 L11.803,23 C11.902,26.289 12.483,29.329 13.49,32 L6.451,32 C6.902,32.701 7.397,33.369 7.936,34 L14.35,34 C15.636,36.599 17.379,38.746 19.5,40.311 L22.778,40.474 L22.982,40.102 L22.105,39.623 C19.851,38.389 17.992,36.456 16.605,34 L21.474,34 C20.998,33.335 20.564,32.668 20.198,32 L15.635,32 C14.542,29.392 13.907,26.342 13.801,23 L20.212,23 C20.812,22.186 21.576,21.502 22.459,21 L13.777,21 L13.676,21 C13.782,17.658 14.416,14.608 15.51,12 L27.49,12 C28.587,14.618 29.223,17.68 29.326,21.036 C29.98,21.433 30.586,21.95 31.065,22.591 C31.164,22.723 31.245,22.864 31.334,23.001 L31.347,23.001 L31.347,22.001 C31.347,18.325 30.744,14.942 29.635,12.001 L37.559,12.001 C37.107,11.296 36.599,10.634 36.057,10 L36.057,10 Z M16.481,10 C17.767,7.723 19.464,5.906 21.5,4.669 C23.536,5.906 25.234,7.724 26.519,10 L16.481,10 L16.481,10 Z" id="Shape" fill="#FFFFFF" opacity="0.3"></path>
                </g>
            </g>
        </g>
    </g>
</svg>

<svg xmlns="http://www.w3.org/2000/svg" width="48" height="48" viewBox="0 0 48 48"><path fill="none" d="M0 0h48v48H0z"/><path fill="#fff" d="M22 41a19 19 0 1 1 18.9-20.94l-1 .1A18 18 0 1 0 22 40v1z"/><path fill="#fff" d="M32.32 45.74l-.32-.32-1.89-1.74c-5.28-4.79-11.81-10.76-11.81-16.4a7.73 7.73 0 0 1 7.7-7.72 7.13 7.13 0 0 1 5.44 2.74 7.28 7.28 0 0 1 .85 1.44 7.28 7.28 0 0 1 .85-1.44 7.13 7.13 0 0 1 5.44-2.74 7.73 7.73 0 0 1 7.72 7.72c0 5.65-6.53 11.61-11.79 16.4l-1.89 1.74zM26 20.56a6.73 6.73 0 0 0-6.72 6.72c0 5.2 6.35 11 11.46 15.67l1.56 1.43 1.56-1.43C39 38.28 45.34 32.48 45.34 27.28a6.73 6.73 0 0 0-6.72-6.72A6.17 6.17 0 0 0 34 22.89a5.26 5.26 0 0 0-1.15 3.28h-1a5.26 5.26 0 0 0-1.15-3.28 6.17 6.17 0 0 0-4.7-2.33z"/><path fill="none" d="M13.36 12H6.45a18.38 18.38 0 0 0-2.9 9h8.13a27.91 27.91 0 0 1 1.68-9zm6-8.29A18.45 18.45 0 0 0 7.94 10h6.29a17.21 17.21 0 0 1 5.13-6.29zM11.8 23H3.55a18.38 18.38 0 0 0 2.9 9h7a27.91 27.91 0 0 1-1.65-9zm16.97-13h7.28a18.44 18.44 0 0 0-12.6-6.43A17.13 17.13 0 0 1 28.77 10zM14.35 34H7.94a18.45 18.45 0 0 0 11.56 6.31A17.24 17.24 0 0 1 14.35 34z"/><path fill="#fff" d="M22 41v-1a18.06 18.06 0 0 0 4.61-.6l.26 1A19.09 19.09 0 0 1 22 41z"/><path fill="none" d="M21.5 4.67a14.43 14.43 0 0 0-5 5.33h10a14.43 14.43 0 0 0-5-5.33z"/><path fill="none" d="M21.5 4.67a14.43 14.43 0 0 0-5 5.33h10a14.43 14.43 0 0 0-5-5.33zM15.51 12a25.41 25.41 0 0 0-1.83 9h8.78a7.18 7.18 0 0 1 3.54-.94 6.61 6.61 0 0 1 3.3 1 25.45 25.45 0 0 0-1.84-9h-12z"/><path fill="none" d="M21.5 4.67a14.43 14.43 0 0 0-5 5.33h10a14.43 14.43 0 0 0-5-5.33zM15.64 32h4.56a9.94 9.94 0 0 1-1.4-4.72A7.18 7.18 0 0 1 20.21 23H13.8a25.41 25.41 0 0 0 1.84 9z"/><path fill="#fff" d="M15.64 32a25.41 25.41 0 0 1-1.83-9h6.41a7.25 7.25 0 0 1 2.25-2h-8.79a25.41 25.41 0 0 1 1.83-9h12a25.45 25.45 0 0 1 1.84 9 6.12 6.12 0 0 1 1.74 1.55c.1.13.18.27.27.41V22a28.38 28.38 0 0 0-1.71-10h7.92a18.54 18.54 0 0 0-1.5-2h-7.3a17.13 17.13 0 0 0-5.32-6.43c-.48 0-1-.07-1.45-.07a18.55 18.55 0 0 0-2.64.21A17.21 17.21 0 0 0 14.23 10H7.94a18.53 18.53 0 0 0-1.48 2h6.91a27.91 27.91 0 0 0-1.69 9H3.55c0 .33-.05.66-.05 1s0 .67.05 1h8.25a27.91 27.91 0 0 0 1.69 9h-7a18.54 18.54 0 0 0 1.48 2h6.41a17.24 17.24 0 0 0 5.15 6.31l3.28.16.19-.37-.88-.48A14.26 14.26 0 0 1 16.61 34h4.87a20 20 0 0 1-1.28-2h-4.56zM21.5 4.67a14.43 14.43 0 0 1 5 5.33h-10a14.43 14.43 0 0 1 5-5.33z" opacity=".3"/></svg>
